src/assets/imgs/profit-two-page/6.svg

<svg fill="none" height="109" viewBox="0 0 109 109" width="109" xmlns="http://www.w3.org/2000/svg"><path clip-rule="evenodd" d="m47.7707 63.4517c.1519.1412.3607.3018.4495.3722.314.2494.6333.5035.8894.8145.1026.1245.1663.251.2054.4076.2065.8254-.3459 1.5094-.7716 2.1467-.0425.0636-.1299.1957-.1993.3207.5298.2096 1.4573.4287 1.7997.5086.4745.1108.8004.5221.8004 1.0099 0 1.3625-.0004 2.9685.257 4.3092.1087.5669.2719 1.133.6764 1.5621.0868.092.1812.1764.2795.256.3106.251 1.26.1114 1.6191.0517.6015-.0999 1.2007-.2531 1.8043-.3302.2759-.0353.5986-.1302.8689-.2012.5025-.1321 1.0033-.2665 1.5091-.3866 1.3135-.312 2.6679-.541 4.0214-.5316 2.2949.0158 4.3961.738 5.8134 2.6433.0336.0453.0595.0863.0857.1362l.7351 1.3975c.0116.0221.0209.0413.031.0641.699 1.584 1.3559 3.1928 1.8418 4.8568.8417 2.8827 1.3621 6.6301-1.0235 8.9446-.832.8845-1.6358 1.8362-2.4413 2.7469-1.3813 1.5619-2.7704 3.1172-4.1839 4.6501-1.4342 1.5552-2.9017 3.1152-4.4364 4.5712-.7929.753-2.3716 2.249-3.432 2.532-.3551.095-.7054.007-.9741-.244l-3.0124-2.818c-2.6903-2.298-6.0437-5.9139-7.9155-9.3351.0042.4075-.0533.7867-.1924 1.1234-.2081.5045-.7678.7606-1.2849.5876-1.2987-.4343-2.6052-1.2904-3.6973-2.1079-.9836-.7362-1.929-1.5478-2.8197-2.3945-.4803-.4568-1.1817-1.1137-1.56-1.6556-2.3881-3.4218-3.6717-7.0419-3.4547-11.2363.076-1.4711.3299-2.8932.633-4.331.0987-.4689.208-.9496.3077-1.4334-.62.2952-1.2454.5788-1.8683.8499-1.1464.4991-2.4854 1.0622-3.7044 1.3342-.0361.0081-.0673.0133-.104.0177-7.8226.9235-15.0148-4.1605-17.7453-11.3784-.29117-.7698-.6134-1.666-.73565-2.4821-.10618-.7096-.03968-1.4938.6319-1.915.75078-.4711 1.62264-.0602 2.29516.3434.65559.3932 1.28179.8605 1.91269 1.2939.496.3408 1.0375.7067 1.5832.9609 2.4623 1.147 5.1716 1.7461 7.8866 1.7575 3.6307.0152 5.9057-1.2631 8.3921-3.3447-1.2556.5704-2.7015 1.1252-4.0709 1.2978-5.2388.6602-10.4107-.4488-14.5-3.9078-2.98364-2.5239-4.97376-5.9529-6.03531-9.6917-1.1897-4.1898-1.20083-8.6681-.37014-12.9256.08626-.4422.4277-.7659.87335-.8281.44574-.0622.86238.1556 1.06619.5574.35037.6908.6682 1.3971 1.01787 2.0854.46456.9141 1.08893 1.7996 1.65802 2.6269l2.84852 3.9839c1.2882 1.3595 3.4435 2.9899 5.2434 3.4828 2.7077.7417 5.9059.7186 8.5762-.2402-4.9016.3948-10.0057-1.2488-13.5634-4.6801-1.0582-1.0207-1.9916-2.1689-2.79403-3.4007-1.76309-2.7062-2.93992-5.8852-3.35719-9.0896-.379-2.9113-.14947-6.0706 1.12515-8.7501 3.11267-6.5445 8.17317-10.3109 15.16917-11.96561 3.4972-.82726 7.8041-.68945 11.3302-.10515 4.2398.70249 9.6647 2.45396 12.1831 6.20446.2213.3296.2395.7277.0491 1.0762-.1903.3485-.535.5479-.9314.5391-1.8917-.0422-3.8078-.2988-5.698-.4379-2.0343-.15-4.1141-.2022-6.1344.1236-5.3837.8681-10.7979 3.3122-10.9727 9.5211-.062 2.1981 1.155 5.0555 2.8672 6.458 1.603 1.3132 3.4035 2.0526 5.4911 1.7234 3.2456-.5121 6.2782-3.4519 8.4879-5.7257 1.0861-1.1176 2.0814-2.4008 3.0255-3.6402 1.163-1.5265 2.2912-3.0798 3.4471-4.612 1.3146-1.7427 2.6716-3.4877 4.1516-5.0932 1.228-1.3322 2.7024-2.7505 4.279-3.6008 1.4323-.8281 2.8507-1.68108 4.2871-2.50158 1.2254-.70005 2.4665-1.37129 3.7572-1.94413 3.4128-1.51475 6.8386-2.11248 10.5375-2.4444.0324-.00291.0601-.00417.0925-.00417 9.0623 0 14.5846 1.15024 21.9211 6.76088 1.0792.8252 2.0485 1.7031 2.9319 2.7372.8425.9861 1.5807 2.0653 2.3176 3.1314 3.6394 5.2658 5.9134 12.7629 6.4864 19.1036.003.0327.004.0606.004.0935 0 2.5596-.067 5.1129-.366 7.6571-.316 2.6872-.889 5.2895-1.606 7.8958-.72 2.6179-1.712 5.043-2.847 7.5016-.538 1.1654-1.249 2.3441-1.9135 3.4423-.9207 1.5221-1.8809 3.0237-2.8575 4.5103-1.1062 1.6845-2.2382 3.3581-3.4069 5-.4511.6335-.9087 1.2647-1.3818 1.8818-.3116.4065-.6464.8419-1.0026 1.2095-1.2281 1.2673-2.542 2.505-3.8491 3.6892-1.0321.9354-3.6751 3.352-4.975 3.6996-.551.1472-1.1205-.1826-1.2676-.7344-.3748-1.4053-1.2822-2.2772-2.0033-3.4846-.9729-1.6293-1.8992-3.4016-2.4342-5.2304-.3704-1.2668-.5067-2.4436-.5194-3.7575-.008-.8343.0212-1.6665-.007-2.5011-.0344-1.0145-.153-1.9989-.3593-2.9931-.2884-1.3892-.497-2.7767-.6669-4.1846-.1324-1.0967-.2417-2.2014-.4239-3.291-.2598-1.5533-.6757-2.9371-1.3339-4.3706-.9894-2.1552-2.387-4.2232-3.7864-6.129-.8139-1.1083-2.6213-2.2987-3.7553-3.0967-.6531-.4597-1.3074-.9212-1.9383-1.4114l-8.2803-5.4955c-1.9723-1.2559-3.2478-2.975-4.0779-5.139-.0392-.102-.0768-.2042-.1135-.3064-.2935.8339-.6354 1.6525-.9043 2.4931-.1892.5909-.3341 1.186-.395 1.8047-.1381 1.4001-.1431 2.8404.2175 4.2096.244.9265.6534 1.7301.9808 2.6185.4653 1.2626.5663 2.3744.3636 3.7092-.318 2.0949-1.3282 4.3867-2.2379 6.2833-.0341.0709-.0697.1284-.1182.1903-.5763.7369-1.2411 1.4362-1.878 2.1219-.3715.3998-1.6833 1.7708-2.0789 2.416.4876.8377 1.0748 1.4723 1.8318 2.1096.6753.5684 1.4869 1.1248 1.7962 1.9905.4186 1.1724-.2664 2.3718-.9753 3.3287zm24.9099-58.4268c8.7926 0 14.0841 1.03567 21.2927 6.548 2.3748 1.8164 3.3532 3.2133 5.0265 5.6346 3.2792 4.7446 5.7042 11.9486 6.3072 18.607 0 5.8408-.358 9.538-1.936 15.2776-.771 2.8041-1.768 5.1313-2.788 7.3419-1.5645 3.3885-8.7391 14.0783-10.3658 15.7568-1.5646 1.6142-6.8876 6.7186-8.3483 7.109-.4421-1.6582-1.3446-2.4592-2.115-3.7492-4.3559-7.2945-1.9991-8.3998-3.1949-14.161-1.5503-7.4687.156-9.463-6.3906-18.3785-1.1493-1.5649-3.8745-3.1399-5.9234-4.7364l-8.3291-5.5279c-4.0927-2.6059-4.0385-6.9606-4.9419-8.3862-.2838 3.4159-1.8682 5.3028-2.1351 8.0119-.8411 8.5324 4.5323 5.8181-.5788 16.4734-1.4036 1.795-4.6852 4.76-4.211 5.3847 2.1534 4.0749 5.6638 3.0991 2.5728 7.0163-.2063.7837 1.1258 1.3674 1.6887 2.0512.1619.6474-1.3473 1.7798-1.0653 2.667.0491.3618 1.2625.7399 2.6634 1.0669 0 4.729.4225 5.9839 1.598 6.9339.9882.7988 2.9887.0987 4.2048-.0566 1.5984-.2041 8.1998-2.9873 11.2513 1.1148l.7351 1.3975c1.579 3.5781 4.0586 9.7432 1.0289 12.653-1.514 1.6074-11.6899 13.6034-14.0241 14.2284l-3.0297-2.834c-2.999-2.5586-7.0298-7.0109-8.4774-10.7134l-.4478-1.1517c-1.4565-3.8569-2.3782-9.9784-1.535-13.9648-2.4816 2.5435-2.7227 7.823-1.4353 11.0718.6757 1.7051 2.7764 5.3838 2.1411 6.9237-2.9827-.9975-7.0814-5.0881-7.5561-5.7684-5.6615-8.1116-2.3799-14.047-2.0319-18.234-1.5035.7966-5.2174 2.5727-7.1288 2.9994-6.9199.8169-13.9281-3.5065-16.65559-10.716-2.3394-6.1841 1.61809-1.7325 4.28219-.4914 2.2986 1.0708 5.1385 1.8409 8.319 1.8542 4.5674.0193 7.1812-1.8689 10.2999-4.6649 1.5795-1.416 2.7119-3.1319 2.9616-3.6173.0103-.0205-5.5062 3.7211-9.0653 4.1696-14.3769 1.8119-22.60839-10.6984-19.75975-25.2975 1.18703 2.3405.85626 2.0834 2.75729 4.8462l2.88916 4.041c1.448 1.5456 3.7893 3.2795 5.7715 3.8223 3.2404.8875 6.7861.6871 9.5303-.3888 2.1881-1.0575 5.1554-1.9661 6.6107-3.9549-.5248.3264-2.7015 1.2683-5.5798 1.8252-5.4831 1.0606-11.0367-.7536-14.5568-4.1488-5.52069-5.3247-7.49865-14.3942-4.80966-20.0477 2.96056-6.2243 7.74036-9.8102 14.47236-11.40241 6.3405-1.49975 18.5928-.02513 22.416 5.66881-3.2825-.0731-7.7644-.9875-12.02-.3012-5.9597.9609-11.6538 3.7901-11.8432 10.5155-.0798 2.835 1.5281 5.8822 3.2466 7.2899 6.0275 4.9375 11.5735-.1684 15.3769-4.0818 4.0829-4.2015 9.7473-14.1097 14.6788-16.7713 6.8541-3.96265 9.3339-5.96378 18.1566-6.7554z" fill="#000" fill-rule="evenodd" stroke="#000" stroke-miterlimit="22.9256"/></svg>

<svg width="109" height="109" viewBox="0 0 109 109" fill="none" xmlns="http://www.w3.org/2000/svg">
<path fill-rule="evenodd" clip-rule="evenodd" d="M47.7707 63.4517C47.9226 63.5929 48.1314 63.7535 48.2202 63.8239C48.5342 64.0733 48.8535 64.3274 49.1096 64.6384C49.2122 64.7629 49.2759 64.8894 49.315 65.046C49.5215 65.8714 48.9691 66.5554 48.5434 67.1927C48.5009 67.2563 48.4135 67.3884 48.3441 67.5134C48.8739 67.723 49.8014 67.9421 50.1438 68.022C50.6183 68.1328 50.9442 68.5441 50.9442 69.0319C50.9442 70.3944 50.9438 72.0004 51.2012 73.3411C51.3099 73.908 51.4731 74.4741 51.8776 74.9032C51.9644 74.9952 52.0588 75.0796 52.1571 75.1592C52.4677 75.4102 53.4171 75.2706 53.7762 75.2109C54.3777 75.111 54.9769 74.9578 55.5805 74.8807C55.8564 74.8454 56.1791 74.7505 56.4494 74.6795C56.9519 74.5474 57.4527 74.413 57.9585 74.2929C59.272 73.9809 60.6264 73.7519 61.9799 73.7613C64.2748 73.7771 66.376 74.4993 67.7933 76.4046C67.8269 76.4499 67.8528 76.4909 67.879 76.5408L68.6141 77.9383C68.6257 77.9604 68.635 77.9796 68.6451 78.0024C69.3441 79.5864 70.001 81.1952 70.4869 82.8592C71.3286 85.7419 71.849 89.4893 69.4634 91.8038C68.6314 92.6883 67.8276 93.64 67.0221 94.5507C65.6408 96.1126 64.2517 97.6679 62.8382 99.2008C61.404 100.756 59.9365 102.316 58.4018 103.772C57.6089 104.525 56.0302 106.021 54.9698 106.304C54.6147 106.399 54.2644 106.311 53.9957 106.06L50.9833 103.242C48.293 100.944 44.9396 97.3281 43.0678 93.9069C43.072 94.3144 43.0145 94.6936 42.8754 95.0303C42.6673 95.5348 42.1076 95.7909 41.5905 95.6179C40.2918 95.1836 38.9853 94.3275 37.8932 93.51C36.9096 92.7738 35.9642 91.9622 35.0735 91.1155C34.5932 90.6587 33.8918 90.0018 33.5135 89.4599C31.1254 86.0381 29.8418 82.418 30.0588 78.2236C30.1348 76.7525 30.3887 75.3304 30.6918 73.8926C30.7905 73.4237 30.8998 72.943 30.9995 72.4592C30.3795 72.7544 29.7541 73.038 29.1312 73.3091C27.9848 73.8082 26.6458 74.3713 25.4268 74.6433C25.3907 74.6514 25.3595 74.6566 25.3228 74.661C17.5002 75.5845 10.308 70.5005 7.5775 63.2826C7.28633 62.5128 6.9641 61.6166 6.84185 60.8005C6.73567 60.0909 6.80217 59.3067 7.47375 58.8855C8.22453 58.4144 9.09639 58.8253 9.76891 59.2289C10.4245 59.6221 11.0507 60.0894 11.6816 60.5228C12.1776 60.8636 12.7191 61.2295 13.2648 61.4837C15.7271 62.6307 18.4364 63.2298 21.1514 63.2412C24.7821 63.2564 27.0571 61.9781 29.5435 59.8965C28.2879 60.4669 26.842 61.0217 25.4726 61.1943C20.2338 61.8545 15.0619 60.7455 10.9726 57.2865C7.98896 54.7626 5.99884 51.3336 4.93729 47.5948C3.74759 43.405 3.73646 38.9267 4.56715 34.6692C4.65341 34.227 4.99485 33.9033 5.4405 33.8411C5.88624 33.7789 6.30288 33.9967 6.50669 34.3985C6.85706 35.0893 7.17489 35.7956 7.52456 36.4839C7.98912 37.398 8.61349 38.2835 9.18258 39.1108L12.0311 43.0947C13.3193 44.4542 15.4746 46.0846 17.2745 46.5775C19.9822 47.3192 23.1804 47.2961 25.8507 46.3373C20.9491 46.7321 15.845 45.0885 12.2873 41.6572C11.2291 40.6365 10.2957 39.4883 9.49327 38.2565C7.73018 35.5503 6.55335 32.3713 6.13608 29.1669C5.75708 26.2556 5.98661 23.0963 7.26123 20.4168C10.3739 13.8723 15.4344 10.1059 22.4304 8.45119C25.9276 7.62393 30.2345 7.76174 33.7606 8.34604C38.0004 9.04853 43.4253 10.8 45.9437 14.5505C46.165 14.8801 46.1832 15.2782 45.9928 15.6267C45.8025 15.9752 45.4578 16.1746 45.0614 16.1658C43.1697 16.1236 41.2536 15.867 39.3634 15.7279C37.3291 15.5779 35.2493 15.5257 33.229 15.8515C27.8453 16.7196 22.4311 19.1637 22.2563 25.3726C22.1943 27.5707 23.4113 30.4281 25.1235 31.8306C26.7265 33.1438 28.527 33.8832 30.6146 33.554C33.8602 33.0419 36.8928 30.1021 39.1025 27.8283C40.1886 26.7107 41.1839 25.4275 42.128 24.1881C43.291 22.6616 44.4192 21.1083 45.5751 19.5761C46.8897 17.8334 48.2467 16.0884 49.7267 14.4829C50.9547 13.1507 52.4291 11.7324 54.0057 10.8821C55.438 10.054 56.8564 9.20102 58.2928 8.38052C59.5182 7.68047 60.7593 7.00923 62.05 6.43639C65.4628 4.92164 68.8886 4.32391 72.5875 3.99199C72.6199 3.98908 72.6476 3.98782 72.68 3.98782C81.7423 3.98782 87.2646 5.13806 94.6011 10.7487C95.6803 11.5739 96.6496 12.4518 97.533 13.4859C98.3755 14.472 99.1137 15.5512 99.8506 16.6173C103.49 21.8831 105.764 29.3802 106.337 35.7209C106.34 35.7536 106.341 35.7815 106.341 35.8144C106.341 38.374 106.274 40.9273 105.975 43.4715C105.659 46.1587 105.086 48.761 104.369 51.3673C103.649 53.9852 102.657 56.4103 101.522 58.8689C100.984 60.0343 100.273 61.213 99.6085 62.3112C98.6878 63.8333 97.7276 65.3349 96.751 66.8215C95.6448 68.506 94.5128 70.1796 93.3441 71.8215C92.893 72.455 92.4354 73.0862 91.9623 73.7033C91.6507 74.1098 91.3159 74.5452 90.9597 74.9128C89.7316 76.1801 88.4177 77.4178 87.1106 78.602C86.0785 79.5374 83.4355 81.954 82.1356 82.3016C81.5846 82.4488 81.0151 82.119 80.868 81.5672C80.4932 80.1619 79.5858 79.29 78.8647 78.0826C77.8918 76.4533 76.9655 74.681 76.4305 72.8522C76.0601 71.5854 75.9238 70.4086 75.9111 69.0947C75.9031 68.2604 75.9323 67.4282 75.9041 66.5936C75.8697 65.5791 75.7511 64.5947 75.5448 63.6005C75.2564 62.2113 75.0478 60.8238 74.8779 59.4159C74.7455 58.3192 74.6362 57.2145 74.454 56.1249C74.1942 54.5716 73.7783 53.1878 73.1201 51.7543C72.1307 49.5991 70.7331 47.5311 69.3337 45.6253C68.5198 44.517 66.7124 43.3266 65.5784 42.5286C64.9253 42.0689 64.271 41.6074 63.6401 41.1172L55.3598 35.6217C53.3875 34.3658 52.112 32.6467 51.2819 30.4827C51.2427 30.3807 51.2051 30.2785 51.1684 30.1763C50.8749 31.0102 50.533 31.8288 50.2641 32.6694C50.0749 33.2603 49.93 33.8554 49.8691 34.4741C49.731 35.8742 49.726 37.3145 50.0866 38.6837C50.3306 39.6102 50.74 40.4138 51.0674 41.3022C51.5327 42.5648 51.6337 43.6766 51.431 45.0114C51.113 47.1063 50.1028 49.3981 49.1931 51.2947C49.159 51.3656 49.1234 51.4231 49.0749 51.485C48.4986 52.2219 47.8338 52.9212 47.1969 53.6069C46.8254 54.0067 45.5136 55.3777 45.118 56.0229C45.6056 56.8606 46.1928 57.4952 46.9498 58.1325C47.6251 58.7009 48.4367 59.2573 48.746 60.123C49.1646 61.2954 48.4796 62.4948 47.7707 63.4517ZM72.6806 5.0249C81.4732 5.0249 86.7647 6.06057 93.9733 11.5729C96.3481 13.3893 97.3265 14.7862 98.9998 17.2075C102.279 21.9521 104.704 29.1561 105.307 35.8145C105.307 41.6553 104.949 45.3525 103.371 51.0921C102.6 53.8962 101.603 56.2234 100.583 58.434C99.0185 61.8225 91.8439 72.5123 90.2172 74.1908C88.6526 75.805 83.3296 80.9094 81.8689 81.2998C81.4268 79.6416 80.5243 78.8406 79.7539 77.5506C75.398 70.2561 77.7548 69.1508 76.559 63.3896C75.0087 55.9209 76.715 53.9266 70.1684 45.0111C69.0191 43.4462 66.2939 41.8712 64.245 40.2747L55.9159 34.7468C51.8232 32.1409 51.8774 27.7862 50.974 26.3606C50.6902 29.7765 49.1058 31.6634 48.8389 34.3725C47.9978 42.9049 53.3712 40.1906 48.2601 50.8459C46.8565 52.6409 43.5749 55.6059 44.0491 56.2306C46.2025 60.3055 49.7129 59.3297 46.6219 63.2469C46.4156 64.0306 47.7477 64.6143 48.3106 65.2981C48.4725 65.9455 46.9633 67.0779 47.2453 67.9651C47.2944 68.3269 48.5078 68.705 49.9087 69.032C49.9087 73.761 50.3312 75.0159 51.5067 75.9659C52.4949 76.7647 54.4954 76.0646 55.7115 75.9093C57.3099 75.7052 63.9113 72.922 66.9628 77.0241L67.6979 78.4216C69.2769 81.9997 71.7565 88.1648 68.7268 91.0746C67.2128 92.682 57.0369 104.678 54.7027 105.303L51.673 102.469C48.674 99.9104 44.6432 95.4581 43.1956 91.7556L42.7478 90.6039C41.2913 86.747 40.3696 80.6255 41.2128 76.6391C38.7312 79.1826 38.4901 84.4621 39.7775 87.7109C40.4532 89.416 42.5539 93.0947 41.9186 94.6346C38.9359 93.6371 34.8372 89.5465 34.3625 88.8662C28.701 80.7546 31.9826 74.8192 32.3306 70.6322C30.8271 71.4288 27.1132 73.2049 25.2018 73.6316C18.2819 74.4485 11.2737 70.1251 8.54621 62.9156C6.20681 56.7315 10.1643 61.1831 12.8284 62.4242C15.127 63.495 17.9669 64.2651 21.1474 64.2784C25.7148 64.2977 28.3286 62.4095 31.4473 59.6135C33.0268 58.1975 34.1592 56.4816 34.4089 55.9962C34.4192 55.9757 28.9027 59.7173 25.3436 60.1658C10.9667 61.9777 2.73521 49.4674 5.58385 34.8683C6.77088 37.2088 6.44011 36.9517 8.34114 39.7145L11.2303 43.7555C12.6783 45.3011 15.0196 47.035 17.0018 47.5778C20.2422 48.4653 23.7879 48.2649 26.5321 47.189C28.7202 46.1315 31.6875 45.2229 33.1428 43.2341C32.618 43.5605 30.4413 44.5024 27.563 45.0593C22.0799 46.1199 16.5263 44.3057 13.0062 40.9105C7.48551 35.5858 5.50755 26.5163 8.19654 20.8628C11.1571 14.6385 15.9369 11.0526 22.6689 9.46039C29.0094 7.96064 41.2617 9.43526 45.0849 15.1292C41.8024 15.0561 37.3205 14.1417 33.0649 14.828C27.1052 15.7889 21.4111 18.6181 21.2217 25.3435C21.1419 28.1785 22.7498 31.2257 24.4683 32.6334C30.4958 37.5709 36.0418 32.465 39.8452 28.5516C43.9281 24.3501 49.5925 14.4419 54.524 11.7803C61.3781 7.81765 63.8579 5.81652 72.6806 5.0249Z" fill="black" stroke="black" stroke-miterlimit="22.9256"/>
</svg>
